X: 10589
T: Douce Pluie Du Soir
R: reel
M: 4/4
K: Dmajor
|:FAde c3 A|GFGA B4|degf d3 A|GFED E4|
FAde c2{dc} B/c/d|DGFG A B3|degf d3 A|GFED D4:|
|:ecAF dDdc|B2 AG F4|EFGA B3 A|GABd cB/c/ dc/d/|
ecAF dDdc|B2 AG A4|GBAG FAGF|E3 D D4:|

